X:0488
T:A Basket of Oysters, or Pady the Weaver
M:6/8
L:1/8
Q:3/8=120
I: :: ::
Z:Jack Campin * www.campin.me.uk * 2009
K:E Minor
g|d2B BcB |d2B B2e|d2B BAB |G2E E2
e|d2B BAB |d2B B2f|g2e af^d|e3  e2:|
f|gfg abc'|bag fga|g2e efe |d2B B2
f|gfg abc'|bag fga|g2e af^d|e3  e2:|
<end>
<start>
